dist/img/clock.svg

<svg width="27" height="27" viewBox="0 0 27 27" fill="none" xmlns="http://www.w3.org/2000/svg">
<path d="M13.5 0C6.04255 0 0 6.04255 0 13.5C0 20.9575 6.04255 27 13.5 27C20.9575 27 27 20.9575 27 13.5C27 6.04255 20.9575 0 13.5 0ZM13.5 25.8772C6.67861 25.8772 1.12284 20.3279 1.12284 13.5C1.12284 6.67861 6.67212 1.12284 13.5 1.12284C20.3214 1.12284 25.8772 6.67212 25.8772 13.5C25.8772 20.3214 20.3214 25.8772 13.5 25.8772Z" fill="#D1327F"/>
<path d="M13.4998 13.5001H7.26904V14.6229H14.6226V5.19238H13.4998V13.5001Z" fill="#D1327F"/>
</svg>

<svg width="27" height="27" fill="none" xmlns="http://www.w3.org/2000/svg"><path d="M13.5 0C6.043 0 0 6.043 0 13.5S6.043 27 13.5 27 27 20.957 27 13.5 20.957 0 13.5 0Zm0 25.877c-6.821 0-12.377-5.55-12.377-12.377 0-6.821 5.55-12.377 12.377-12.377 6.821 0 12.377 5.55 12.377 12.377 0 6.821-5.556 12.377-12.377 12.377Z" fill="#D1327F"/><path d="M13.5 13.5H7.269v1.123h7.354v-9.43H13.5V13.5Z" fill="#D1327F"/></svg>
